packages/components/src/telekom/icons/home/wifi-connection-error/default.svg

<?xml version="1.0" encoding="UTF-8"?>
<svg width="24px" height="24px" viewBox="0 0 24 24" version="1.1" xmlns="http://www.w3.org/2000/svg" xmlns:xlink="http://www.w3.org/1999/xlink">
    <title>/svg/icon/home/wifi-connection-error/default</title>
    <g id="icon/home/wifi-connection-error/default" stroke="none" stroke-width="1" fill="none" fill-rule="evenodd">
        <path d="M12.0003,17.9999 C13.1043,17.9999 14.0003,18.8959 14.0003,19.9999 C14.0003,21.1049 13.1043,22.0009 12.0003,22.0009 C10.8953,22.0009 10.0003,21.1049 10.0003,19.9999 C10.0003,18.8959 10.8953,17.9999 12.0003,17.9999 Z M10.9203,13.6009 C11.0693,14.2829 11.3143,14.9299 11.6423,15.5249 C10.1546,15.6427 8.8681575,16.4761825 8.1396405,17.6883991 L8.0293,17.8829 L6.5933,16.3939 C7.5683,14.9349 9.1203,13.9029 10.9203,13.6009 Z M17.9373,6.3759 C21.0793,6.3759 23.6253,8.9209 23.6253,12.0629 C23.6253,15.2039 21.0793,17.7499 17.9373,17.7499 C14.7973,17.7499 12.2503,15.2039 12.2503,12.0629 C12.2503,8.9209 14.7973,6.3759 17.9373,6.3759 Z M17.944,7.875 C15.635,7.875 13.756,9.754 13.756,12.062 C13.756,14.371 15.635,16.25 17.944,16.25 C20.253,16.25 22.131,14.371 22.131,12.062 C22.131,9.754 20.253,7.875 17.944,7.875 Z M11.4363,9.0159 C11.1343,9.6589 10.9253,10.3509 10.8253,11.0789 C8.49043043,11.384987 6.44102023,12.588624 5.02450556,14.3292477 L4.8353,14.5699 L3.4273,13.1109 C5.3333,10.7419 8.2003,9.1799 11.4363,9.0159 Z M19.2753,9.7599 L17.9373,11.0969 L16.6003,9.7599 C16.3343,9.4939 15.9013,9.4939 15.6343,9.7599 C15.3683,10.0269 15.3683,10.4589 15.6343,10.7249 L16.9723,12.0629 L15.6343,13.3999 C15.3683,13.6669 15.3683,14.0989 15.6343,14.3649 C15.7683,14.4989 15.9433,14.5649 16.1173,14.5649 C16.2923,14.5649 16.4663,14.4989 16.6003,14.3649 L17.9373,13.0279 L19.2753,14.3649 C19.4083,14.4989 19.5833,14.5649 19.7573,14.5649 C19.9323,14.5649 20.1063,14.4989 20.2403,14.3649 C20.5063,14.0989 20.5063,13.6669 20.2403,13.3999 L18.9023,12.0629 L20.2403,10.7249 C20.5063,10.4589 20.5063,10.0269 20.2403,9.7599 C19.9733,9.4939 19.5423,9.4939 19.2753,9.7599 Z M12.0003,4.5009 C13.4683,4.5009 14.8893,4.7059 16.2353,5.0869 C15.1433,5.3539 14.1473,5.8649 13.3143,6.5679 C12.8813,6.5259 12.4433,6.5009 12.0003,6.5009 C7.98575455,6.5009 4.38212553,8.25458228 1.90883727,11.0361398 L1.6803,11.2999 L0.2873,9.8549 C3.1293,6.5769 7.3203,4.5009 12.0003,4.5009 Z" id="Icon" fill="#000000"></path>
    </g>
</svg>

<svg width="24" height="24" xmlns="http://www.w3.org/2000/svg"><path d="M12 18a2 2 0 110 4 2 2 0 010-4zm-1.08-4.4a7.14 7.14 0 00.722 1.925 4.496 4.496 0 00-3.502 2.163l-.11.195-1.437-1.49a6.494 6.494 0 014.327-2.792zm7.017-7.224a5.686 5.686 0 110 11.374 5.687 5.687 0 010-11.374zm.007 1.499a4.193 4.193 0 00-4.188 4.187 4.193 4.193 0 004.188 4.188 4.192 4.192 0 004.187-4.188 4.192 4.192 0 00-4.187-4.187zm-6.508 1.14a7.125 7.125 0 00-.61 2.064 8.985 8.985 0 00-5.801 3.25l-.19.24-1.408-1.458a10.98 10.98 0 018.01-4.095zm7.84.745l-1.339 1.337L16.6 9.76a.683.683 0 00-.966.965l1.338 1.338-1.338 1.337a.683.683 0 00.966.965l1.337-1.337 1.338 1.337a.679.679 0 00.965 0 .683.683 0 000-.965l-1.338-1.337 1.338-1.338a.683.683 0 00-.965-.965zM12 4.5c1.468 0 2.89.206 4.235.587a7.16 7.16 0 00-2.92 1.48A13.466 13.466 0 001.91 11.036l-.23.265L.287 9.855A15.46 15.46 0 0112 4.5z" fill-rule="evenodd"/></svg>
